X: 1
T: Worcester Hornpipe
M: 4/4
L: 1/8
R: hornpipe
K: Gmaj
D2 |G2 BA GB d| e2 ef g2 fe | dBGB dBGB |
cAFA cAFD | G2 BA GB d2 |e2 ef g2 fe |
dgfe dcBA |1 G2 B2 G2 :|2 G2 B2 G2 Bc ||
d2 B2 GF G2 | e2 c2 cBce | d2 B2 GFGB |
AGFE D2 Bc |d2 B2 GFGB | cdef g2 fe |
dgfe dcBA |1 G2 B2 G2 Bc :|2 G2 B2 G4 ||
